X:100
T:Humours of Drinagh, The
R:jig
H:Related to reel#697
D:Stockton's Wing
D:Noel Hill & Tony McMahon: \'I gCnoc na Gra\'i
Z:id:hn-jig-100
M:6/8
K:D
FDF ABc|dfd ecA|FDF ABc|dAF ~G3|
FDF ABc|dfd ecA|~f3 gec|1 edc dAG:|2 edc d2e||
|:~f3 ~g3|agf gfe|~f3 ~g3|agf g2e|
agf gfe|fed ecA|~f3 gec|1 edc d2e:|2 edc dAG||
P:Version of 1st part:
|:FDF ABc|dfd ecA|FDF AB=c|BAF ~G3|
E~F2 ABc|dfd ecA|~f3 gec|1 edc dAG:|2 edc d2e||


This file contains 100 jigs (#301 - #400).
You can find more abc tune files at http://www.norbeck.nu/abc/
I've transcribed them as I have learnt them, which does not necessarily mean
that I play them that way nowadays. Many of the tunes include variations and
different versions. If there is a source (S:) or discography (D:) included the
version transcribed might still not be exactly as that source played the tune,
since I might have changed the tune around a bit when I learnt it.
The tunes were learnt from sessions, from friends or from recordings.
When I've included discography, it's often just a reference to what recordings
the tune appears on.

Last updated 14 December 2018.

(c) Copyright 1997-2018 Henrik Norbeck. This file:
- May be distributed with restrictions below.
- May not be used for commercial purposes (such as printing a tune book to sell).
- This file (or parts of it) may not be made available on a web page for
  download without permission from me.
- This copyright notice must be kept, except when e-mailing individual tunes.
- May be printed on paper for personal use.
- Questions? E-mail: henrik@norbeck.nu

M:6/8
R:jig
Z:id:hn-%R-%X

